recipes/clubhouse/icon.svg

<svg enable-background="new 0 0 1000 1000" viewBox="0 0 1000 1000" xmlns="http://www.w3.org/2000/svg"><path d="m-.1 0h1000.1v1000.1h-1000.1z" fill="#6515dd"/><g fill="#fff"><path d="m235.9 651c-24.7 0-44.9 20.1-44.9 44.9 0 24.7 20.1 44.9 44.9 44.9s44.9-20.1 44.9-44.9-20.1-44.9-44.9-44.9z"/><path d="m788 259.4-282.4 90v-89.1l-304.5 97.2v258.2l262.5-83.8v88.7l345.3-110.3-93.5-91.4zm-324.4 228.3-220.6 70.4v-169.8l220.6-70.3zm267.1 3.5-225.2 71.8v-169.5l207.5-66.4-47.5 100.3z"/></g></svg>

<svg viewBox="0 0 1000 1000" xmlns="http://www.w3.org/2000/svg"><path d="M-.1 0H1000v1000.1H-.1z" fill="#6515dd"/><g fill="#fff"><path d="M235.9 651c-24.7 0-44.9 20.1-44.9 44.9 0 24.7 20.1 44.9 44.9 44.9s44.9-20.1 44.9-44.9-20.1-44.9-44.9-44.9zM788 259.4l-282.4 90v-89.1l-304.5 97.2v258.2l262.5-83.8v88.7l345.3-110.3-93.5-91.4zM463.6 487.7 243 558.1V388.3L463.6 318zm267.1 3.5L505.5 563V393.5L713 327.1l-47.5 100.3z"/></g></svg>
